X: 021692
T: Bright Lake
S: B.Breathnach:"Ceol Rince na hEireann" IV/79 (gan ainm)
Z: B.Black
L: 1/8
M: 2/4
Q: 280
R: polka
K: G
B/d/|gB dG|B/A/G/E/ D2|D/E/F/G/ A/B/c/d/|ed d/^c/d/f/|
gB dG|B/A/G/E/ D2|D/E/F/G/ A/B/c/A/|GB/A/ G :|
F|E2 E/F/G/A/|B/c/B/A/ Be|Be BA|GF ED|
E2 E/F/G/A/|B/c/B/A/ Be|Be BA|GF G :|
